G10 P0 R175 S225 ; sets the standby temperature
G10 P1 R175 S225 ; sets the standby temperature
G10 P2 R175 S225 ; sets the standby temperature
G10 P3 R175 S225 ; sets the standby temperature
; generated by SuperSlicer 2.3.55 on 2021-03-30 at 19:10:03 UTC

;

; external perimeters extrusion width = 0.40mm
; perimeters extrusion width = 0.40mm
; infill extrusion width = 0.40mm
; solid infill extrusion width = 0.40mm
; top infill extrusion width = 0.40mm
; first layer extrusion width = 0.40mm

; external perimeters extrusion width = 0.40mm
; perimeters extrusion width = 0.40mm
; infill extrusion width = 0.40mm
; solid infill extrusion width = 0.40mm
; top infill extrusion width = 0.40mm
; first layer extrusion width = 0.40mm

; external perimeters extrusion width = 0.40mm
; perimeters extrusion width = 0.40mm
; infill extrusion width = 0.40mm
; solid infill extrusion width = 0.40mm
; top infill extrusion width = 0.40mm
; first layer extrusion width = 0.40mm

; external perimeters extrusion width = 0.40mm
; perimeters extrusion width = 0.40mm
; infill extrusion width = 0.40mm
; solid infill extrusion width = 0.40mm
; top infill extrusion width = 0.40mm
; first layer extrusion width = 0.40mm

; object:{"name":"Würfel_20mm","id":"Würfel_20mm.STL id:0 copy 0","object_center":[110.588706,99.946841,0.000000],"boundingbox_center":[110.588706,99.946841,0.100000],"boundingbox_size":[20.000000,20.000000,0.200000]}
; object:{"name":"Würfel_20mm","id":"Würfel_20mm.STL id:1 copy 0","object_center":[140.171314,100.486058,0.000000],"boundingbox_center":[140.171314,100.486058,0.100000],"boundingbox_size":[20.000000,20.000000,0.200000]}
; object:{"name":"Würfel_20mm","id":"Würfel_20mm.STL id:2 copy 0","object_center":[170.237769,99.933259,0.000000],"boundingbox_center":[170.237769,99.933259,0.100000],"boundingbox_size":[20.000000,20.000000,0.200000]}
; object:{"name":"Würfel_20mm","id":"Würfel_20mm.STL id:3 copy 0","object_center":[199.640936,100.080727,0.000000],"boundingbox_center":[199.640936,100.080727,0.100000],"boundingbox_size":[20.000000,20.000000,0.200000]}
; plater:{"center":[155.114821,100.209658,0.000000],"boundingbox_center":[155.114821,100.209658,0.100000],"boundingbox_size":[109.052230,20.552799,0.200000]}

;TYPE:Custom
; custom gcode: start_gcode
; set tool temps
G10 P0 S225 R225;
G10 P1 S225 R225;
G10 P2 S225 R225;
G10 P3 S225 R225;

; set bed temps
M140 S60 ;set bed temp fast
M190 S60 ; set bed temp + wait for it

; prepare for print
G28 Z; home all axes
G29 S1; enable MeshBedLeveling
G1 Z5 F5000 ; lift nozzle

; make sure, a tool is selected before print

T0 ; Select inital tool

; custom gcode end: start_gcode
G21 ; set units to millimeters
G90 ; use absolute coordinates
M83 ; use relative distances for extrusion
; custom gcode: start_filament_gcode
; Filament gcode
; custom gcode end: start_filament_gcode
;Z:0.4
;HEIGHT:0.4
G1 Z0.400000 F21000.000
; printing object Würfel_20mm.STL id:0 copy 0
G1 E-3.50000 F2400.00000
G1 Z1.700000 F21000.000
G1 X101.417 Y90.775
G1 Z0.400000
G1 E3.50000 F2400.00000
;TYPE:Perimeter
G1 F1800.000
G1 X119.760 Y90.775 E0.95835
G1 X119.760 Y109.119 E0.95835
G1 X101.417 Y109.119 E0.95835
G1 X101.417 Y90.835 E0.95521
G1 X101.103 Y90.461 F21000.000
G1 F1800.000
G1 X120.075 Y90.461 E0.99117
G1 X120.075 Y109.433 E0.99117
G1 X101.103 Y109.433 E0.99117
G1 X101.103 Y90.521 E0.98804
G1 X100.789 Y90.147 F21000.000
;TYPE:External perimeter
G1 F1800.000
G1 X120.389 Y90.147 E1.02400
G1 X120.389 Y109.747 E1.02400
G1 X100.789 Y109.747 E1.02400
G1 X100.789 Y90.207 E1.02087
G1 X101.135 Y90.347 F21000.000
G1 E-3.50000 F2400.00000
G1 Z0.900000 F21000.000
G1 X119.031 Y90.869
G1 Z0.400000
G1 E3.50000 F2400.00000
;TYPE:Solid infill
G1 F1800.000
G1 X119.525 Y91.363 E0.03587
G1 X119.525 Y91.807 E0.02283
G1 X118.728 Y91.011 E0.05788
G1 X118.284 Y91.011 E0.02283
G1 X119.525 Y92.252 E0.09016
G1 X119.525 Y92.696 E0.02283
G1 X117.840 Y91.011 E0.12244
G1 X117.395 Y91.011 E0.02283
G1 X119.525 Y93.140 E0.15472
G1 X119.525 Y93.585 E0.02283
G1 X116.951 Y91.011 E0.18700
G1 X116.507 Y91.011 E0.02283
G1 X119.525 Y94.029 E0.21928
G1 X119.525 Y94.473 E0.02283
G1 X116.062 Y91.011 E0.25156
G1 X115.618 Y91.011 E0.02283
G1 X119.525 Y94.917 E0.28384
G1 X119.525 Y95.362 E0.02283
G1 X115.174 Y91.011 E0.31612
G1 X114.730 Y91.011 E0.02283
G1 X119.525 Y95.806 E0.34840
G1 X119.525 Y96.250 E0.02283
G1 X114.285 Y91.011 E0.38068
G1 X113.841 Y91.011 E0.02283
G1 X119.525 Y96.695 E0.41296
G1 X119.525 Y97.139 E0.02283
G1 X113.397 Y91.011 E0.44524
G1 X112.952 Y91.011 E0.02283
G1 X119.525 Y97.583 E0.47752
G1 X119.525 Y98.027 E0.02283
G1 X112.508 Y91.011 E0.50980
G1 X112.064 Y91.011 E0.02283
G1 X119.525 Y98.472 E0.54208
G1 X119.525 Y98.916 E0.02283
G1 X111.620 Y91.011 E0.57436
G1 X111.175 Y91.011 E0.02283
G1 X119.525 Y99.360 E0.60664
G1 X119.525 Y99.805 E0.02283
G1 X110.731 Y91.011 E0.63892
G1 X110.287 Y91.011 E0.02283
G1 X119.525 Y100.249 E0.67120
G1 X119.525 Y100.693 E0.02283
G1 X109.842 Y91.011 E0.70348
G1 X109.398 Y91.011 E0.02283
G1 X119.525 Y101.137 E0.73576
G1 X119.525 Y101.582 E0.02283
G1 X108.954 Y91.011 E0.76804
G1 X108.510 Y91.011 E0.02283
G1 X119.525 Y102.026 E0.80032
G1 X119.525 Y102.470 E0.02283
G1 X108.065 Y91.011 E0.83260
G1 X107.621 Y91.011 E0.02283
G1 X119.525 Y102.915 E0.86488
G1 X119.525 Y103.359 E0.02283
G1 X107.177 Y91.011 E0.89716
G1 X106.732 Y91.011 E0.02283
G1 X119.525 Y103.803 E0.92944
G1 X119.525 Y104.247 E0.02283
G1 X106.288 Y91.011 E0.96172
G1 X105.844 Y91.011 E0.02283
G1 X119.525 Y104.692 E0.99400
G1 X119.525 Y105.136 E0.02283
G1 X105.400 Y91.011 E1.02628
G1 X104.955 Y91.011 E0.02283
G1 X119.525 Y105.580 E1.05856
G1 X119.525 Y106.025 E0.02283
G1 X104.511 Y91.011 E1.09083
G1 X104.067 Y91.011 E0.02283
G1 X119.525 Y106.469 E1.12311
G1 X119.525 Y106.913 E0.02283
G1 X103.622 Y91.011 E1.15539
G1 X103.178 Y91.011 E0.02283
G1 X119.525 Y107.357 E1.18767
G1 X119.525 Y107.802 E0.02283
G1 X102.734 Y91.011 E1.21995
G1 X102.289 Y91.011 E0.02283
G1 X119.525 Y108.246 E1.25223
G1 X119.525 Y108.690 E0.02283
G1 X101.845 Y91.011 E1.28451
G1 X101.653 Y91.011 E0.00989
G1 X101.653 Y91.262 E0.01293
G1 X119.273 Y108.883 E1.28022
G1 X118.829 Y108.883 E0.02283
G1 X101.653 Y91.707 E1.24794
G1 X101.653 Y92.151 E0.02283
G1 X118.384 Y108.883 E1.21566
G1 X117.940 Y108.883 E0.02283
G1 X101.653 Y92.595 E1.18338
G1 X101.653 Y93.040 E0.02283
G1 X117.496 Y108.883 E1.15110
G1 X117.052 Y108.883 E0.02283
G1 X101.653 Y93.484 E1.11882
G1 X101.653 Y93.928 E0.02283
G1 X116.607 Y108.883 E1.08654
G1 X116.163 Y108.883 E0.02283
G1 X101.653 Y94.372 E1.05426
G1 X101.653 Y94.817 E0.02283
G1 X115.719 Y108.883 E1.02198
G1 X115.274 Y108.883 E0.02283
G1 X101.653 Y95.261 E0.98970
G1 X101.653 Y95.705 E0.02283
G1 X114.830 Y108.883 E0.95742
G1 X114.386 Y108.883 E0.02283
G1 X101.653 Y96.150 E0.92514
G1 X101.653 Y96.594 E0.02283
G1 X113.942 Y108.883 E0.89286
G1 X113.497 Y108.883 E0.02283
G1 X101.653 Y97.038 E0.86058
G1 X101.653 Y97.483 E0.02283
G1 X113.053 Y108.883 E0.82830
G1 X112.609 Y108.883 E0.02283
G1 X101.653 Y97.927 E0.79602
G1 X101.653 Y98.371 E0.02283
G1 X112.164 Y108.883 E0.76374
G1 X111.720 Y108.883 E0.02283
G1 X101.653 Y98.815 E0.73146
G1 X101.653 Y99.260 E0.02283
G1 X111.276 Y108.883 E0.69918
G1 X110.832 Y108.883 E0.02283
G1 X101.653 Y99.704 E0.66690
G1 X101.653 Y100.148 E0.02283
G1 X110.387 Y108.883 E0.63462
G1 X109.943 Y108.883 E0.02283
G1 X101.653 Y100.593 E0.60234
G1 X101.653 Y101.037 E0.02283
G1 X109.499 Y108.883 E0.57006
G1 X109.054 Y108.883 E0.02283
G1 X101.653 Y101.481 E0.53778
G1 X101.653 Y101.925 E0.02283
G1 X108.610 Y108.883 E0.50550
G1 X108.166 Y108.883 E0.02283
G1 X101.653 Y102.370 E0.47322
G1 X101.653 Y102.814 E0.02283
G1 X107.722 Y108.883 E0.44094
G1 X107.277 Y108.883 E0.02283
G1 X101.653 Y103.258 E0.40866
G1 X101.653 Y103.703 E0.02283
G1 X106.833 Y108.883 E0.37638
G1 X106.389 Y108.883 E0.02283
G1 X101.653 Y104.147 E0.34410
G1 X101.653 Y104.591 E0.02283
G1 X105.944 Y108.883 E0.31182
G1 X105.500 Y108.883 E0.02283
G1 X101.653 Y105.035 E0.27954
G1 X101.653 Y105.480 E0.02283
G1 X105.056 Y108.883 E0.24726
G1 X104.612 Y108.883 E0.02283
G1 X101.653 Y105.924 E0.21498
G1 X101.653 Y106.368 E0.02283
G1 X104.167 Y108.883 E0.18270
G1 X103.723 Y108.883 E0.02283
G1 X101.653 Y106.813 E0.15042
G1 X101.653 Y107.257 E0.02283
G1 X103.279 Y108.883 E0.11814
G1 X102.834 Y108.883 E0.02283
G1 X101.653 Y107.701 E0.08586
G1 X101.653 Y108.145 E0.02283
G1 X102.390 Y108.883 E0.05358
G1 X101.946 Y108.883 E0.02283
G1 X101.511 Y108.448 E0.03157
; stop printing object Würfel_20mm.STL id:0 copy 0
; printing object Würfel_20mm.STL id:1 copy 0
; stop printing object Würfel_20mm.STL id:1 copy 0
; printing object Würfel_20mm.STL id:2 copy 0
; stop printing object Würfel_20mm.STL id:2 copy 0
; printing object Würfel_20mm.STL id:3 copy 0
; stop printing object Würfel_20mm.STL id:3 copy 0
G1 E-1.00000 F2400.00000
G1 Z1.700000 F21000.000
; custom gcode: end_filament_gcode
; Filament-specific end gcode
;END gcode for filament
; custom gcode end: end_filament_gcode
T1
; custom gcode: start_filament_gcode
; Filament gcode
; custom gcode end: start_filament_gcode
; printing object Würfel_20mm.STL id:0 copy 0
; stop printing object Würfel_20mm.STL id:0 copy 0
; printing object Würfel_20mm.STL id:1 copy 0
G1 E-3.50000 F2400.00000
G1 X131.000 Y109.658 F21000.000
G1 Z0.400000
G1 E3.50000 F2400.00000
;TYPE:Perimeter
G1 F1800.000
G1 X131.000 Y91.314 E0.95835
G1 X149.343 Y91.314 E0.95835
G1 X149.343 Y109.658 E0.95835
G1 X131.060 Y109.658 E0.95521
G1 X130.685 Y109.972 F21000.000
G1 F1800.000
G1 X130.685 Y91.000 E0.99117
G1 X149.657 Y91.000 E0.99117
G1 X149.657 Y109.972 E0.99117
G1 X130.745 Y109.972 E0.98804
G1 X130.371 Y110.286 F21000.000
;TYPE:External perimeter
G1 F1800.000
G1 X130.371 Y90.686 E1.02400
G1 X149.971 Y90.686 E1.02400
G1 X149.971 Y110.286 E1.02400
G1 X130.431 Y110.286 E1.02087
G1 X130.571 Y109.940 F21000.000
G1 E-3.50000 F2400.00000
G1 Z0.900000 F21000.000
G1 X148.614 Y91.409
G1 Z0.400000
G1 E3.50000 F2400.00000
;TYPE:Solid infill
G1 F1800.000
G1 X149.107 Y91.902 E0.03587
G1 X149.107 Y92.347 E0.02283
G1 X148.311 Y91.550 E0.05788
G1 X147.866 Y91.550 E0.02283
G1 X149.107 Y92.791 E0.09016
G1 X149.107 Y93.235 E0.02283
G1 X147.422 Y91.550 E0.12244
G1 X146.978 Y91.550 E0.02283
G1 X149.107 Y93.679 E0.15472
G1 X149.107 Y94.124 E0.02283
G1 X146.534 Y91.550 E0.18700
G1 X146.089 Y91.550 E0.02283
G1 X149.107 Y94.568 E0.21928
G1 X149.107 Y95.012 E0.02283
G1 X145.645 Y91.550 E0.25156
G1 X145.201 Y91.550 E0.02283
G1 X149.107 Y95.457 E0.28384
G1 X149.107 Y95.901 E0.02283
G1 X144.756 Y91.550 E0.31612
G1 X144.312 Y91.550 E0.02283
G1 X149.107 Y96.345 E0.34840
G1 X149.107 Y96.789 E0.02283
G1 X143.868 Y91.550 E0.38068
G1 X143.424 Y91.550 E0.02283
G1 X149.107 Y97.234 E0.41296
G1 X149.107 Y97.678 E0.02283
G1 X142.979 Y91.550 E0.44524
G1 X142.535 Y91.550 E0.02283
G1 X149.107 Y98.122 E0.47752
G1 X149.107 Y98.567 E0.02283
G1 X142.091 Y91.550 E0.50980
G1 X141.646 Y91.550 E0.02283
G1 X149.107 Y99.011 E0.54208
G1 X149.107 Y99.455 E0.02283
G1 X141.202 Y91.550 E0.57436
G1 X140.758 Y91.550 E0.02283
G1 X149.107 Y99.900 E0.60664
G1 X149.107 Y100.344 E0.02283
G1 X140.314 Y91.550 E0.63892
G1 X139.869 Y91.550 E0.02283
G1 X149.107 Y100.788 E0.67120
G1 X149.107 Y101.232 E0.02283
G1 X139.425 Y91.550 E0.70348
G1 X138.981 Y91.550 E0.02283
G1 X149.107 Y101.677 E0.73576
G1 X149.107 Y102.121 E0.02283
G1 X138.536 Y91.550 E0.76804
G1 X138.092 Y91.550 E0.02283
G1 X149.107 Y102.565 E0.80032
G1 X149.107 Y103.010 E0.02283
G1 X137.648 Y91.550 E0.83260
G1 X137.204 Y91.550 E0.02283
G1 X149.107 Y103.454 E0.86488
G1 X149.107 Y103.898 E0.02283
G1 X136.759 Y91.550 E0.89716
G1 X136.315 Y91.550 E0.02283
G1 X149.107 Y104.342 E0.92944
G1 X149.107 Y104.787 E0.02283
G1 X135.871 Y91.550 E0.96172
G1 X135.426 Y91.550 E0.02283
G1 X149.107 Y105.231 E0.99400
G1 X149.107 Y105.675 E0.02283
G1 X134.982 Y91.550 E1.02628
G1 X134.538 Y91.550 E0.02283
G1 X149.107 Y106.120 E1.05856
G1 X149.107 Y106.564 E0.02283
G1 X134.094 Y91.550 E1.09083
G1 X133.649 Y91.550 E0.02283
G1 X149.107 Y107.008 E1.12311
G1 X149.107 Y107.452 E0.02283
G1 X133.205 Y91.550 E1.15539
G1 X132.761 Y91.550 E0.02283
G1 X149.107 Y107.897 E1.18767
G1 X149.107 Y108.341 E0.02283
G1 X132.316 Y91.550 E1.21995
G1 X131.872 Y91.550 E0.02283
G1 X149.107 Y108.785 E1.25223
G1 X149.107 Y109.230 E0.02283
G1 X131.428 Y91.550 E1.28451
G1 X131.235 Y91.550 E0.00989
G1 X131.235 Y91.802 E0.01293
G1 X148.856 Y109.422 E1.28022
G1 X148.411 Y109.422 E0.02283
G1 X131.235 Y92.246 E1.24794
G1 X131.235 Y92.690 E0.02283
G1 X147.967 Y109.422 E1.21566
G1 X147.523 Y109.422 E0.02283
G1 X131.235 Y93.135 E1.18338
G1 X131.235 Y93.579 E0.02283
G1 X147.079 Y109.422 E1.15110
G1 X146.634 Y109.422 E0.02283
G1 X131.235 Y94.023 E1.11882
G1 X131.235 Y94.467 E0.02283
G1 X146.190 Y109.422 E1.08654
G1 X145.746 Y109.422 E0.02283
G1 X131.235 Y94.912 E1.05426
G1 X131.235 Y95.356 E0.02283
G1 X145.301 Y109.422 E1.02198
G1 X144.857 Y109.422 E0.02283
G1 X131.235 Y95.800 E0.98970
G1 X131.235 Y96.245 E0.02283
G1 X144.413 Y109.422 E0.95742
G1 X143.969 Y109.422 E0.02283
G1 X131.235 Y96.689 E0.92514
G1 X131.235 Y97.133 E0.02283
G1 X143.524 Y109.422 E0.89286
G1 X143.080 Y109.422 E0.02283
G1 X131.235 Y97.577 E0.86058
G1 X131.235 Y98.022 E0.02283
G1 X142.636 Y109.422 E0.82830
G1 X142.191 Y109.422 E0.02283
G1 X131.235 Y98.466 E0.79602
G1 X131.235 Y98.910 E0.02283
G1 X141.747 Y109.422 E0.76374
G1 X141.303 Y109.422 E0.02283
G1 X131.235 Y99.355 E0.73146
G1 X131.235 Y99.799 E0.02283
G1 X140.858 Y109.422 E0.69918
G1 X140.414 Y109.422 E0.02283
G1 X131.235 Y100.243 E0.66690
G1 X131.235 Y100.687 E0.02283
G1 X139.970 Y109.422 E0.63462
G1 X139.526 Y109.422 E0.02283
G1 X131.235 Y101.132 E0.60234
G1 X131.235 Y101.576 E0.02283
G1 X139.081 Y109.422 E0.57006
G1 X138.637 Y109.422 E0.02283
G1 X131.235 Y102.020 E0.53778
G1 X131.235 Y102.465 E0.02283
G1 X138.193 Y109.422 E0.50550
G1 X137.748 Y109.422 E0.02283
G1 X131.235 Y102.909 E0.47322
G1 X131.235 Y103.353 E0.02283
G1 X137.304 Y109.422 E0.44094
G1 X136.860 Y109.422 E0.02283
G1 X131.235 Y103.797 E0.40866
G1 X131.235 Y104.242 E0.02283
G1 X136.416 Y109.422 E0.37638
G1 X135.971 Y109.422 E0.02283
G1 X131.235 Y104.686 E0.34410
G1 X131.235 Y105.130 E0.02283
G1 X135.527 Y109.422 E0.31182
G1 X135.083 Y109.422 E0.02283
G1 X131.235 Y105.575 E0.27954
G1 X131.235 Y106.019 E0.02283
G1 X134.638 Y109.422 E0.24726
G1 X134.194 Y109.422 E0.02283
G1 X131.235 Y106.463 E0.21498
G1 X131.235 Y106.907 E0.02283
G1 X133.750 Y109.422 E0.18270
G1 X133.306 Y109.422 E0.02283
G1 X131.235 Y107.352 E0.15042
G1 X131.235 Y107.796 E0.02283
G1 X132.861 Y109.422 E0.11814
G1 X132.417 Y109.422 E0.02283
G1 X131.235 Y108.240 E0.08586
G1 X131.235 Y108.685 E0.02283
G1 X131.973 Y109.422 E0.05358
G1 X131.528 Y109.422 E0.02283
G1 X131.094 Y108.988 E0.03157
; stop printing object Würfel_20mm.STL id:1 copy 0
; printing object Würfel_20mm.STL id:2 copy 0
; stop printing object Würfel_20mm.STL id:2 copy 0
; printing object Würfel_20mm.STL id:3 copy 0
; stop printing object Würfel_20mm.STL id:3 copy 0
G1 E-1.00000 F2400.00000
G1 Z1.700000 F21000.000
; custom gcode: end_filament_gcode
; Filament-specific end gcode
;END gcode for filament
; custom gcode end: end_filament_gcode
T2
; custom gcode: start_filament_gcode
; Filament gcode
; custom gcode end: start_filament_gcode
; printing object Würfel_20mm.STL id:0 copy 0
; stop printing object Würfel_20mm.STL id:0 copy 0
; printing object Würfel_20mm.STL id:1 copy 0
; stop printing object Würfel_20mm.STL id:1 copy 0
; printing object Würfel_20mm.STL id:2 copy 0
G1 E-3.50000 F2400.00000
G1 X161.066 Y108.988 F21000.000
G1 Z0.400000
G1 E3.50000 F2400.00000
;TYPE:Perimeter
G1 F1800.000
G1 X161.066 Y90.762 E0.95221
G1 X179.409 Y90.762 E0.95835
G1 X179.409 Y109.105 E0.95835
G1 X161.066 Y109.105 E0.95835
G1 X161.066 Y109.048 E0.00300
G1 X160.752 Y109.419 F21000.000
G1 F1800.000
G1 X160.752 Y90.447 E0.99117
G1 X179.724 Y90.447 E0.99117
G1 X179.724 Y109.419 E0.99117
G1 X160.812 Y109.419 E0.98804
G1 X160.438 Y109.733 F21000.000
;TYPE:External perimeter
G1 F1800.000
G1 X160.438 Y90.133 E1.02400
